public/assets/player.svg

<svg fill="none" height="129" viewBox="0 0 128 129" width="128" xmlns="http://www.w3.org/2000/svg" xmlns:xlink="http://www.w3.org/1999/xlink"><linearGradient id="a" gradientUnits="userSpaceOnUse" x1="10.764" x2="117.236" y1="61.5625" y2="68"><stop offset=".15" stop-color="#2aabee"/><stop offset="1" stop-color="#0ccfcf"/></linearGradient><path d="m53.3334 88.7812 32-24-32-24zm10.6667-77.3333c-29.44 0-53.3333 23.8933-53.3333 53.3333s23.8933 53.3338 53.3333 53.3338 53.3329-23.8938 53.3329-53.3338-23.8929-53.3333-53.3329-53.3333zm0 96.0001c-23.52 0-42.6667-19.1468-42.6667-42.6668s19.1467-42.6667 42.6667-42.6667 42.6669 19.1467 42.6669 42.6667-19.1469 42.6668-42.6669 42.6668z" fill="url(#a)"/></svg>

<svg width="128" height="129" viewBox="0 0 128 129" fill="none" xmlns="http://www.w3.org/2000/svg">
<path d="M53.3334 88.7812L85.3334 64.7812L53.3334 40.7812V88.7812ZM64.0001 11.4479C34.5601 11.4479 10.6668 35.3412 10.6668 64.7812C10.6668 94.2212 34.5601 118.115 64.0001 118.115C93.4401 118.115 117.333 94.2212 117.333 64.7812C117.333 35.3412 93.4401 11.4479 64.0001 11.4479ZM64.0001 107.448C40.4801 107.448 21.3334 88.3012 21.3334 64.7812C21.3334 41.2612 40.4801 22.1145 64.0001 22.1145C87.5201 22.1145 106.667 41.2612 106.667 64.7812C106.667 88.3012 87.5201 107.448 64.0001 107.448Z" fill="url(#paint0_linear_701_23740)"/>
<defs>
<linearGradient id="paint0_linear_701_23740" x1="10.764" y1="61.5625" x2="117.236" y2="68" gradientUnits="userSpaceOnUse">
<stop offset="0.15" stop-color="#2AABEE"/>
<stop offset="1" stop-color="#0CCFCF"/>
</linearGradient>
</defs>
</svg>
